X:1
T:Penmaenmawr, CMD
T:Sarah Geraldine Stock, 1887
T:Penmaenmawr, CMD
T:Public Domain
C:Sarah Geraldine Stock, 1887
Z:Public Domain
%%score ( 1 2 ) ( 3 4 )
L:1/8
M:4/4
K:Ab
V:1 treble 
V:2 treble 
V:3 bass 
V:4 bass 
V:1
 C2 | [FA]3 [FA] [=EG]2 [EG]2 | F2 [CF]2 C3 [B,C] | [A,D]2 [A,D]2 [A,E]2 [A,D]2 | C6 C2 | %5
 [CA]3 [FA] [FG]2 [=EG]2 | F2 [=EG]2 [FA]2 [GB]2 | [Ac]3 [Ac] [A=d]2 [Ad]2 | [Ge]6 [Ge]2 | %9
 A2 z d [Ac]2 [Ac]2 | [Gc]3 [GB] A4 | [GB]2 [GB][GB] [Be]2 [GB]2 | [Ac]6 [Ec]2 | %13
 [=Ec]3 [EG] [CG]2 [EB]2 | [=EB]3 [FA] [CA]2 [_CF]2 | [CE]2 [Ae]2 [Gc]3 [GB] | A6 |] %17
V:2
 C2 | x8 | F2 C3 x3 | x8 | C6 C2 | x8 | F2 x6 | x8 | x8 | e3 A2 x3 | x4 A4 | x8 | x8 | x8 | x8 | %15
 x8 | A6 |] %17
V:3
 C,2 | [F,C]3 [F,C] [C,B,]2 [C,B,]2 | [F,A,]2 [F,A,]2 [=E,G,]3 [E,G,] | %3
 [F,A,]2 [F,A,]2 [F,A,]2 [F,A,]2 | [=E,G,]6 [E,B,]2 | [F,A,]3 [F,C] [C,B,]2 [C,B,]2 | %6
 [D,A,]2 [C,C]2 [F,C]2 [G,E]2 | [A,E]3 [A,E] [F,F]2 [F,A,]2 | [E,B,]6 [E,D]2 | %9
 A,2 z F [A,E]2 [A,E]2 | E,2 z D [F,C]4 | [E,E]2 [E,E][E,E] [G,E]2 [E,E]2 | [A,E]6 [A,C]2 | %13
 [C,C]3 [C,C] [=E,C]2 [C,C]2 | [F,D]3 [F,C] [F,A,]2 [=D,A,]2 | [E,A,]2 [E,C]2 [E,E]2 z D | %16
 [A,,C]6 |] %17
V:4
 C,2 | x8 | x8 | x8 | x8 | x8 | x8 | x8 | x8 | C3 A,2 x3 | E3 E,2 x3 | x8 | x8 | x8 | x8 | x6 E,2 | %16
 x6 |] %17

